X:192
T:Fly. THO5.192, The
M:6/8
L:1/8
B:Thompson's Complete Collection of 200 Favourite Dances Vol.5
F:https://www.libraryofdance.org/manuals/1780c-Thompson-Compleat-5.pdf
Z:vmp. Peter Dunk 2024
Q:3/8=105
K:G
f2f gdB|ecA dBG|f2f gdB|ecA d3|
f2f gdB|ecA dBG|ABc BdB|cAF G3:|
|:B2c dBG|c2d ecA|B2c dBG|AFD D3|
B2c dBG|c2d ecA|faf gdB|cAF G3:|
W:
W:Turn right hands round, left hands back again ./.
W:Lead down 2 Couples, cast up one ./:
W:Set 3 & 3 top and bottom then sides ./:
W:Hands 6 quite round :/:

